Origami/64x64/apps/the-witcher-2.svg

<svg width="64" height="64" version="1.1" viewBox="0 0 64 64" xmlns="http://www.w3.org/2000/svg">
 <circle cx="32" cy="33" r="28" style="opacity:.2"/>
 <circle cx="32" cy="32" r="28" style="fill:#c44652"/>
 <path d="M 32 4 A 28 28 0 0 0 4 32 A 28 28 0 0 0 4.0214844 32.585938 A 28 28 0 0 1 32 5 A 28 28 0 0 1 59.978516 32.414062 A 28 28 0 0 0 60 32 A 28 28 0 0 0 32 4 z" style="fill:#ffffff;opacity:.1"/>
 <path d="m18 10.5v5.699219l-2.371094 2.677734c-3.511088 2.0861-5.9569503 3.897092-8.628906 6.123047l5 2-9 6 11 1-10 12 11-3v3l6-2-1 4 9.199219-3.800781 2.800781-0.199219 2.800781 0.199219 9.199219 3.800781-1-4 6 2v-3l11 3-10-12 11-1-9-6 5-2c-2.671956-2.225955-5.117818-4.036947-8.628906-6.123047l-2.371094-2.677734v-5.699219l-6 2.900391v-1.400391l-2 1.400391v-1.400391l-6 1.5-6-1.5v1.400391l-2-1.400391v1.400391z" style="opacity:.2"/>
 <path d="m18 9.5v5.699219l-2.371094 2.677734c-3.511088 2.0861-5.9569503 3.897092-8.628906 6.123047l5 2-9 6 11 1-10 12 11-3v3l6-2-1 4 9.199219-3.800781 2.800781-0.199219 2.800781 0.199219 9.199219 3.800781-1-4 6 2v-3l11 3-10-12 11-1-9-6 5-2c-2.671956-2.225955-5.117818-4.036947-8.628906-6.123047l-2.371094-2.677734v-5.699219l-6 2.900391v-1.400391l-2 1.400391v-1.400391l-6 1.5-6-1.5v1.400391l-2-1.400391v1.400391l-6-2.900391z" style="fill:#393939"/>
 <path d="m12 9-0.993028 2.584693c-0.09713 3.32262 0.834122 6.274208 1.952459 9.160694 1.944531 4.809984 7.098994 6.596345 10.269495 9.554467 2.011511 1.922168 2.553367 3.617073 2.841182 5.310467 0.333397 1.961577 0.534558 4.088168 0.743794 7.361371 0.699676 4.259526 1.080942 11.199951 1.605172 13.514073 0.48025 0.537005 3.580927 0.514093 3.580927 0.514093s3.100675 0.02292 3.580925-0.514093c0.524229-2.314122 0.905496-9.254547 1.605172-13.514073 0.209238-3.273203 0.410397-5.399794 0.743794-7.361371 0.287812-1.693394 0.829671-3.388299 2.841182-5.310467 3.1705-2.958122 8.324967-4.744483 10.269498-9.554467 1.118336-2.886486 2.049582-5.838074 1.952458-9.160694l-0.99303-2.584693v2.579223l-9.491179 6.495977-10.50882-0.1504-10.508819 0.1504-9.491182-6.495977z" style="opacity:.2"/>
 <path d="m12 8-0.993028 2.584693c-0.09713 3.32262 0.834122 6.274208 1.952459 9.160694 1.944531 4.809984 7.098994 6.596345 10.269495 9.554467 2.011511 1.922168 2.553367 3.617073 2.841182 5.310467 0.333397 1.961577 0.534558 4.088168 0.743794 7.361371 0.699676 4.259526 1.080942 11.199951 1.605172 13.514073 0.48025 0.537005 3.580927 0.514093 3.580927 0.514093s3.100675 0.02292 3.580925-0.514093c0.524229-2.314122 0.905496-9.254547 1.605172-13.514073 0.209238-3.273203 0.410397-5.399794 0.743794-7.361371 0.287812-1.693394 0.829671-3.388299 2.841182-5.310467 3.1705-2.958122 8.324967-4.744483 10.269498-9.554467 1.118336-2.886486 2.049582-5.838074 1.952458-9.160694l-0.99303-2.584693v2.579223l-9.491179 6.495977-10.50882-0.1504-10.508819 0.1504-9.491182-6.495977z" style="fill:#505050"/>
 <path d="M 21.357216,20.807274 A 4.447823,4.447823 0 0 0 21,22.552177 4.447823,4.447823 0 0 0 25.447823,27 4.447823,4.447823 0 0 0 29,25.219827 Z" style="opacity:.2"/>
 <path d="M 21.357216,19.807274 A 4.447823,4.447823 0 0 0 21,21.552177 4.447823,4.447823 0 0 0 25.447823,26 4.447823,4.447823 0 0 0 29,24.219827 Z" style="fill:#eb6b00"/>
 <path d="m36 36c-1.388608 0.591582-2.573548 1.531823-4 1.413847v0.03038c-1.426452 0.117972-2.611392-0.822265-4-1.413847l1.367188 15.42253c0.104173 1.15378 0.127586 1.30795 1.036458 1.413847 0.593924 0.105812 1.049902 0.145976 1.596354 0.129787v-0.03037c0.546452 0.01619 1.00243-0.02398 1.596354-0.129791 0.908876-0.105898 0.932286-0.257306 1.036458-1.411086z" style="opacity:.4"/>
 <path d="m30 48c-0.57879 0.505752-0.41778 1.482441-0.83073 2.221678l0.197918 2.231227c0.104173 1.15378 0.127586 1.30795 1.036458 1.413847 0.192606 0.03432 0.357264 0.05097 0.528646 0.07179h1.908854c0.238635-0.02176 0.480074-0.05316 0.755208-0.102179 0.908876-0.105897 0.932286-0.257306 1.036458-1.411086l0.195314-2.206373c-0.412625-0.737935-0.250175-1.713885-0.828126-2.218904v3h-4z" style="opacity:.2"/>
 <path d="m30 47c-0.57879 0.505752-0.41778 1.482441-0.83073 2.221678l0.197918 2.231227c0.104173 1.15378 0.127586 1.30795 1.036458 1.413847 0.192606 0.03432 0.357264 0.05097 0.528646 0.07179h1.908854c0.238635-0.02176 0.480074-0.05316 0.755208-0.102179 0.908876-0.105897 0.932286-0.257306 1.036458-1.411086l0.195314-2.206373c-0.412625-0.737935-0.250175-1.713885-0.828126-2.218904v3h-4z" style="fill:#ffffff"/>
 <path d="m36 37c-1.388608 0.591582-2.566714 1.004784-4 0.98481-1.433286-0.01997-2.899728-0.484888-3.994792-0.951669 0.154682 1.986921 0.500888 4.661472 1.994792 5.966861v-3.000002h4v2.999997c1.502077-1.31253 1.853954-4.00635 2-5.999997z" style="opacity:.2"/>
 <path d="m36 36c-1.388608 0.591582-2.566714 1.004784-4 0.98481-1.433286-0.01997-2.899728-0.484888-3.994792-0.951669 0.154682 1.986921 0.500888 4.661472 1.994792 5.966861v-3.000002h4v2.999997c1.502077-1.31253 1.853954-4.00635 2-5.999997z" style="fill:#ffffff"/>
 <path d="M 42.642784,20.807274 A 4.447823,4.447823 0 0 1 43,22.552177 4.447823,4.447823 0 0 1 38.552177,27 4.447823,4.447823 0 0 1 35,25.219827 Z" style="opacity:.2"/>
 <path d="M 42.642784,19.807274 A 4.447823,4.447823 0 0 1 43,21.552177 4.447823,4.447823 0 0 1 38.552177,26 4.447823,4.447823 0 0 1 35,24.219827 Z" style="fill:#eb6b00"/>
 <path d="m12 8l-0.992188 2.583984c-0.009674 0.330944-0.002086 0.656585 0.007813 0.980469l0.984375-2.564453v-1zm40 0v1l0.984375 2.564453c0.009899-0.323884 0.017486-0.649525 0.007813-0.980469l-0.992188-2.583984zm-40 2.580078v1l9.490234 6.496094 10.509766-0.152344 10.509766 0.152344 9.490234-6.496094v-1l-9.490234 6.496094-10.509766-0.152344-10.509766 0.152344-9.490234-6.496094z" style="fill:#ffffff;opacity:.1"/>
 <path d="m21.357422 19.806641a4.447823 4.447823 0 0 0 -0.357422 1.746093 4.447823 4.447823 0 0 0 0.029297 0.5 4.447823 4.447823 0 0 1 0.328125 -1.246093l7.039062 4.064453a4.447823 4.447823 0 0 0 0.603516 -0.650391l-7.642578-4.414062z" style="fill:#ffffff;opacity:.1"/>
 <path d="m42.642578 19.806641l-7.642578 4.414062a4.447823 4.447823 0 0 0 0.603516 0.650391l7.039062-4.064453a4.447823 4.447823 0 0 1 0.328125 1.246093 4.447823 4.447823 0 0 0 0.029297 -0.5 4.447823 4.447823 0 0 0 -0.357422 -1.746093z" style="fill:#ffffff;opacity:.1"/>
</svg>

<svg xmlns="http://www.w3.org/2000/svg" width="64" height="64" version="1.1" viewBox="0 0 64 64">
 <circle cx="32" cy="33" r="28" style="opacity:0.2"/>
 <circle style="fill:#c44652" cx="32" cy="32" r="28"/>
 <path style="fill:#ffffff;opacity:0.1" d="M 32 4 A 28 28 0 0 0 4 32 A 28 28 0 0 0 4.0214844 32.585938 A 28 28 0 0 1 32 5 A 28 28 0 0 1 59.978516 32.414062 A 28 28 0 0 0 60 32 A 28 28 0 0 0 32 4 z"/>
 <path d="m 18,10.5 v 5.699219 l -2.371094,2.677734 C 12.117818,20.963053 9.6719557,22.774045 7,25 l 5,2 -9,6 11,1 -10,12 11,-3 v 3 l 6,-2 -1,4 9.199219,-3.800781 L 32,44 34.800781,44.199219 44,48 43,44 49,46 V 43 L 60,46 50,34 61,33 52,27 57,25 C 54.328044,22.774045 51.882182,20.963053 48.371094,18.876953 L 46,16.199219 V 10.5 l -6,2.900391 V 12 l -2,1.400391 V 12 L 32,13.5 26,12 v 1.400391 L 24,12 v 1.400391 z" style="opacity:0.2"/>
 <path style="fill:#393939" d="M 18 9.5 L 18 15.199219 L 15.628906 17.876953 C 12.117818 19.963053 9.6719557 21.774045 7 24 L 12 26 L 3 32 L 14 33 L 4 45 L 15 42 L 15 45 L 21 43 L 20 47 L 29.199219 43.199219 L 32 43 L 34.800781 43.199219 L 44 47 L 43 43 L 49 45 L 49 42 L 60 45 L 50 33 L 61 32 L 52 26 L 57 24 C 54.328044 21.774045 51.882182 19.963053 48.371094 17.876953 L 46 15.199219 L 46 9.5 L 40 12.400391 L 40 11 L 38 12.400391 L 38 11 L 32 12.5 L 26 11 L 26 12.400391 L 24 11 L 24 12.400391 L 18 9.5 z"/>
 <path d="m 12,9 -0.993028,2.584693 c -0.09713,3.32262 0.834122,6.274208 1.952459,9.160694 1.944531,4.809984 7.098994,6.596345 10.269495,9.554467 2.011511,1.922168 2.553367,3.617073 2.841182,5.310467 0.333397,1.961577 0.534558,4.088168 0.743794,7.361371 0.699676,4.259526 1.080942,11.199951 1.605172,13.514073 0.48025,0.537005 3.580927,0.514093 3.580927,0.514093 0,0 3.100675,0.02292 3.580925,-0.514093 0.524229,-2.314122 0.905496,-9.254547 1.605172,-13.514073 0.209238,-3.273203 0.410397,-5.399794 0.743794,-7.361371 0.287812,-1.693394 0.829671,-3.388299 2.841182,-5.310467 3.1705,-2.958122 8.324967,-4.744483 10.269498,-9.554467 1.118336,-2.886486 2.049582,-5.838074 1.952458,-9.160694 L 52,9 v 2.579223 L 42.508821,18.0752 32.000001,17.9248 21.491182,18.0752 12,11.579223 Z" style="opacity:0.2"/>
 <path style="fill:#505050" d="m 12,8 -0.993028,2.584693 c -0.09713,3.32262 0.834122,6.274208 1.952459,9.160694 1.944531,4.809984 7.098994,6.596345 10.269495,9.554467 2.011511,1.922168 2.553367,3.617073 2.841182,5.310467 0.333397,1.961577 0.534558,4.088168 0.743794,7.361371 0.699676,4.259526 1.080942,11.199951 1.605172,13.514073 0.48025,0.537005 3.580927,0.514093 3.580927,0.514093 0,0 3.100675,0.02292 3.580925,-0.514093 0.524229,-2.314122 0.905496,-9.254547 1.605172,-13.514073 0.209238,-3.273203 0.410397,-5.399794 0.743794,-7.361371 0.287812,-1.693394 0.829671,-3.388299 2.841182,-5.310467 3.1705,-2.958122 8.324967,-4.744483 10.269498,-9.554467 1.118336,-2.886486 2.049582,-5.838074 1.952458,-9.160694 L 52,8 v 2.579223 L 42.508821,17.0752 32.000001,16.9248 21.491182,17.0752 12,10.579223 Z"/>
 <path d="M 21.357216,20.807274 A 4.447823,4.447823 0 0 0 21,22.552177 4.447823,4.447823 0 0 0 25.447823,27 4.447823,4.447823 0 0 0 29,25.219827 Z" style="opacity:0.2"/>
 <path style="fill:#eb6b00" d="M 21.357216,19.807274 A 4.447823,4.447823 0 0 0 21,21.552177 4.447823,4.447823 0 0 0 25.447823,26 4.447823,4.447823 0 0 0 29,24.219827 Z"/>
 <path style="opacity:0.4" d="m 36,36 c -1.388608,0.591582 -2.573548,1.531823 -4,1.413847 v 0.03038 c -1.426452,0.117972 -2.611392,-0.822265 -4,-1.413847 l 1.367188,15.42253 c 0.104173,1.15378 0.127586,1.30795 1.036458,1.413847 0.593924,0.105812 1.049902,0.145976 1.596354,0.129787 v -0.03037 c 0.546452,0.01619 1.00243,-0.02398 1.596354,-0.129791 0.908876,-0.105898 0.932286,-0.257306 1.036458,-1.411086 z"/>
 <path d="m 30,48 c -0.57879,0.505752 -0.41778,1.482441 -0.83073,2.221678 l 0.197918,2.231227 c 0.104173,1.15378 0.127586,1.30795 1.036458,1.413847 0.192606,0.03432 0.357264,0.05097 0.528646,0.07179 H 32 32.841146 c 0.238635,-0.02176 0.480074,-0.05316 0.755208,-0.102179 0.908876,-0.105897 0.932286,-0.257306 1.036458,-1.411086 l 0.195314,-2.206373 C 34.415501,49.480969 34.577951,48.505019 34,48 v 3 h -2 -2 z" style="opacity:0.2"/>
 <path style="fill:#ffffff" d="m 30,47 c -0.57879,0.505752 -0.41778,1.482441 -0.83073,2.221678 l 0.197918,2.231227 c 0.104173,1.15378 0.127586,1.30795 1.036458,1.413847 0.192606,0.03432 0.357264,0.05097 0.528646,0.07179 H 32 32.841146 c 0.238635,-0.02176 0.480074,-0.05316 0.755208,-0.102179 0.908876,-0.105897 0.932286,-0.257306 1.036458,-1.411086 l 0.195314,-2.206373 C 34.415501,48.480969 34.577951,47.505019 34,47 v 3 h -2 -2 z"/>
 <path d="m 36,37 c -1.388608,0.591582 -2.566714,1.004784 -4,0.98481 C 30.566714,37.96484 29.100272,37.499922 28.005208,37.033141 28.15989,39.020062 28.506096,41.694613 30,43.000002 V 40 h 2 2 v 2.999997 C 35.502077,41.687467 35.853954,38.993647 36,37 Z" style="opacity:0.2"/>
 <path style="fill:#ffffff" d="m 36,36 c -1.388608,0.591582 -2.566714,1.004784 -4,0.98481 C 30.566714,36.96484 29.100272,36.499922 28.005208,36.033141 28.15989,38.020062 28.506096,40.694613 30,42.000002 V 39 h 2 2 v 2.999997 C 35.502077,40.687467 35.853954,37.993647 36,36 Z"/>
 <path style="opacity:0.2" d="M 42.642784,20.807274 A 4.447823,4.447823 0 0 1 43,22.552177 4.447823,4.447823 0 0 1 38.552177,27 4.447823,4.447823 0 0 1 35,25.219827 Z"/>
 <path d="M 42.642784,19.807274 A 4.447823,4.447823 0 0 1 43,21.552177 4.447823,4.447823 0 0 1 38.552177,26 4.447823,4.447823 0 0 1 35,24.219827 Z" style="fill:#eb6b00"/>
 <path style="opacity:0.1;fill:#ffffff" d="M 12 8 L 11.007812 10.583984 C 10.998138 10.914928 11.005726 11.240569 11.015625 11.564453 L 12 9 L 12 8 z M 52 8 L 52 9 L 52.984375 11.564453 C 52.994274 11.240569 53.001861 10.914928 52.992188 10.583984 L 52 8 z M 12 10.580078 L 12 11.580078 L 21.490234 18.076172 L 32 17.923828 L 42.509766 18.076172 L 52 11.580078 L 52 10.580078 L 42.509766 17.076172 L 32 16.923828 L 21.490234 17.076172 L 12 10.580078 z"/>
 <path style="opacity:0.1;fill:#ffffff" d="M 21.357422 19.806641 A 4.447823 4.447823 0 0 0 21 21.552734 A 4.447823 4.447823 0 0 0 21.029297 22.052734 A 4.447823 4.447823 0 0 1 21.357422 20.806641 L 28.396484 24.871094 A 4.447823 4.447823 0 0 0 29 24.220703 L 21.357422 19.806641 z"/>
 <path style="opacity:0.1;fill:#ffffff" d="M 42.642578 19.806641 L 35 24.220703 A 4.447823 4.447823 0 0 0 35.603516 24.871094 L 42.642578 20.806641 A 4.447823 4.447823 0 0 1 42.970703 22.052734 A 4.447823 4.447823 0 0 0 43 21.552734 A 4.447823 4.447823 0 0 0 42.642578 19.806641 z"/>
</svg>
